packages/ui-icons/src/Service-logos/24/OK.svg

<?xml version="1.0" encoding="UTF-8"?>
<svg viewBox="0 0 32 32" version="1.1" xmlns="http://www.w3.org/2000/svg" xmlns:xlink="http://www.w3.org/1999/xlink">
    <!-- Generator: Sketch 48.2 (47327) - http://www.bohemiancoding.com/sketch -->
    <title>logo/24/ok</title>
    <desc>Created with Sketch.</desc>
    <defs></defs>
    <g id="Icons" stroke="none" stroke-width="1" fill="none" fill-rule="evenodd">
        <g id="logo/24/ok">
            <g id="odnoklassniki" transform="translate(4.000000, 4.000000)">
                <circle id="Oval-2-Copy-2" fill="#F4731C" cx="12" cy="12" r="12"></circle>
                <path d="M13.8173135,15.2284746 C14.6016487,15.0500768 15.3509194,14.7400338 16.0319069,14.311879 C16.5449544,13.9686171 16.6827513,13.2747111 16.3394893,12.7616637 C16.009761,12.2683015 15.3527649,12.1194316 14.8415629,12.4214775 C13.2728926,13.4026654 11.2797586,13.4026654 9.71108826,12.4214775 C9.19004364,12.0929795 8.50228936,12.2492314 8.17317618,12.7690456 C8.17317618,12.770276 8.17317618,12.7715063 8.17194585,12.7721215 C7.84344783,13.2931661 7.9996997,13.9815355 8.52074431,14.3100335 L8.52197464,14.3112639 C9.20173178,14.7388034 9.95038737,15.0494617 10.7341074,15.2266291 L8.60256123,17.3581753 C8.1676397,17.7857148 8.15964255,18.4839269 8.58533662,18.9188485 L8.60379156,18.9373034 C8.81540826,19.1550717 9.10207507,19.2633408 9.38751156,19.2633408 C9.6735632,19.2633408 9.95961485,19.1550717 10.1718467,18.9373034 L12.2763256,16.8432823 L14.3703467,18.9385337 C14.8132654,19.3660733 15.5207049,19.3543852 15.9488596,18.9108513 C16.3659414,18.4783904 16.3659414,17.7924816 15.9488596,17.3606359 L13.8173135,15.2284746 Z M12.2763256,12.1206619 C14.3801893,12.1182013 16.0841959,10.4141947 16.0872717,8.31094612 C16.0872717,6.21015823 14.3771135,4.5 12.2763256,4.5 C10.1755377,4.5 8.46537947,6.21015823 8.46537947,8.31217645 C8.4684553,10.4160402 10.173077,12.1200468 12.2763256,12.1212771 L12.2763256,12.1206619 Z M12.2763256,6.7336635 C13.147399,6.73489383 13.8529931,7.44110305 13.8536082,8.31156129 C13.8536082,9.18263469 13.147399,9.88822875 12.2763256,9.88945908 C11.4058674,9.88822875 10.7002733,9.18324985 10.6984278,8.31217645 C10.6996581,7.44048789 11.4058674,6.73489383 12.2763256,6.73304833 L12.2763256,6.7336635 Z" id="Shape" fill="#FFFFFF" fill-rule="nonzero"></path>
            </g>
        </g>
    </g>
</svg>

<svg viewBox="0 0 32 32" xmlns="http://www.w3.org/2000/svg"><g transform="translate(4 4)" fill="none" fill-rule="evenodd"><circle fill="#F4731C" cx="12" cy="12" r="12"/><path d="M13.817 15.228a7.135 7.135 0 0 0 2.215-.916 1.117 1.117 0 0 0-1.19-1.89 4.839 4.839 0 0 1-5.13 0 1.116 1.116 0 0 0-1.539.347l-.001.003a1.115 1.115 0 0 0 .349 1.538l.001.001c.68.428 1.428.738 2.212.916l-2.131 2.131a1.105 1.105 0 0 0-.018 1.56l.019.02c.211.217.498.325.784.325.286 0 .572-.108.784-.326l2.104-2.094 2.094 2.096a1.117 1.117 0 0 0 1.579-1.578l-2.132-2.133Zm-1.54-3.107a3.815 3.815 0 0 0 3.81-3.81c0-2.1-1.71-3.811-3.81-3.811-2.101 0-3.812 1.71-3.812 3.812a3.814 3.814 0 0 0 3.811 3.81v-.001Zm0-5.387a1.579 1.579 0 1 1-1.578 1.579 1.581 1.581 0 0 1 1.577-1.58Z" fill="#FFF" fill-rule="nonzero"/></g></svg>
